apps/blog/src/assets/icons/send.svg

<svg width="1em" height="1em" viewBox="0 0 22 22" fill="none" xmlns="http://www.w3.org/2000/svg">
  <path d="M21.9885 0.916001C21.9864 0.900476 21.9832 0.88511 21.979 0.870001C21.9649 0.813943 21.941 0.760802 21.9085 0.713001L21.906 0.708001C21.9025 0.702501 21.896 0.700001 21.892 0.695001C21.8716 0.667139 21.8485 0.641349 21.823 0.618001C21.8095 0.607001 21.7935 0.600501 21.7795 0.590501C21.7655 0.580501 21.7535 0.573001 21.739 0.565001C21.6909 0.537367 21.6385 0.517935 21.584 0.507501C21.577 0.507501 21.57 0.507501 21.5635 0.507501C21.5136 0.50156 21.463 0.503076 21.4135 0.512001C21.3966 0.515087 21.3799 0.519093 21.3635 0.524001C21.3495 0.528001 21.335 0.528501 21.321 0.533501L0.321012 8.5335C0.236203 8.56574 0.161764 8.62044 0.10567 8.69175C0.0495765 8.76306 0.0139432 8.84829 0.00258853 8.9383C-0.0087661 9.02832 0.00458583 9.11973 0.0412137 9.20273C0.0778415 9.28574 0.136365 9.35721 0.210512 9.4095L3.27101 11.57L13.525 6.7665L5.00001 12.789V20.5C5.00032 20.5943 5.02729 20.6866 5.07781 20.7662C5.12833 20.8458 5.20033 20.9095 5.28551 20.95C5.35231 20.9827 5.42565 20.9998 5.50001 21C5.61539 21 5.72721 20.9601 5.81651 20.887L10.75 16.85L17.2095 21.4095C17.2946 21.4691 17.3961 21.5007 17.5 21.5C17.6153 21.5 17.727 21.4602 17.8163 21.3873C17.9056 21.3144 17.967 21.2129 17.99 21.1L21.99 1.1C21.9903 1.09667 21.9903 1.09333 21.99 1.09C21.99 1.0795 21.99 1.069 21.99 1.0585C21.9965 1.01118 21.996 0.963173 21.9885 0.916001Z" fill="currentColor"/>
</svg>

<svg xmlns="http://www.w3.org/2000/svg" fill="none" viewBox="0 0 22 22"><path fill="currentColor" d="m21.989.916-.01-.046a.5.5 0 0 0-.07-.157l-.003-.005-.014-.013a.5.5 0 0 0-.069-.077c-.014-.011-.03-.017-.044-.027l-.04-.026a.5.5 0 0 0-.155-.057h-.02a.5.5 0 0 0-.2.016q-.022.004-.043.01l-21 8a.5.5 0 0 0-.11.875l3.06 2.161 10.254-4.804L5 12.79v7.71a.5.5 0 0 0 .817.387l4.933-4.037 6.46 4.56a.5.5 0 0 0 .606-.023.5.5 0 0 0 .174-.287l4-20v-.042a.5.5 0 0 0-.002-.142"/></svg>
